files/icons/FB.svg

<svg width="30" height="30" viewBox="0 0 30 30" fill="none" xmlns="http://www.w3.org/2000/svg">
<g opacity="0.8">
<path d="M4.39453 30H14.1797V19.3359H10.6641V15.8203H14.1797V11.4258C14.1797 9.00261 16.151 7.03125 18.5742 7.03125H22.9688V10.5469H19.4531C18.4838 10.5469 17.6953 11.3354 17.6953 12.3047V15.8203H22.8101L22.2242 19.3359H17.6953V30H25.6055C28.0286 30 30 28.0286 30 25.6055V4.39453C30 1.97136 28.0286 0 25.6055 0H4.39453C1.97136 0 0 1.97136 0 4.39453V25.6055C0 28.0286 1.97136 30 4.39453 30ZM1.75781 4.39453C1.75781 2.94067 2.94067 1.75781 4.39453 1.75781H25.6055C27.0593 1.75781 28.2422 2.94067 28.2422 4.39453V25.6055C28.2422 27.0593 27.0593 28.2422 25.6055 28.2422H19.4531V21.0938H23.7133L24.8852 14.0625H19.4531V12.3047H24.7266V5.27344H18.5742C15.1817 5.27344 12.4219 8.03329 12.4219 11.4258V14.0625H8.90625V21.0938H12.4219V28.2422H4.39453C2.94067 28.2422 1.75781 27.0593 1.75781 25.6055V4.39453Z" fill="#2B3541"/>
</g>
</svg>

<svg xmlns="http://www.w3.org/2000/svg" width="30" height="30" fill="none" viewBox="0 0 30 30"><path fill="#2b3541" d="M4.395 30h9.785V19.336h-3.516V15.82h3.516v-4.394a4.4 4.4 0 0 1 4.394-4.395h4.395v3.516h-3.516a1.76 1.76 0 0 0-1.758 1.758v3.515h5.115l-.586 3.516h-4.529V30h7.91A4.4 4.4 0 0 0 30 25.605V4.395A4.4 4.4 0 0 0 25.605 0H4.395A4.4 4.4 0 0 0 0 4.395v21.21A4.4 4.4 0 0 0 4.395 30M1.758 4.395a2.64 2.64 0 0 1 2.637-2.637h21.21a2.64 2.64 0 0 1 2.637 2.637v21.21a2.64 2.64 0 0 1-2.637 2.637h-6.152v-7.148h4.26l1.172-7.032h-5.432v-1.757h5.274V5.273h-6.153a6.16 6.16 0 0 0-6.152 6.153v2.637H8.906v7.03h3.516v7.15H4.395a2.64 2.64 0 0 1-2.637-2.637z" opacity=".8"/></svg>
